!!!SOCIAL_FUNCTION:	songs of the drum-presentation ceremony
!!!PDT:	1913
!!!OTL: No_60_Song_of_Restoring_the_Mourners.krn
!!!REG: Great_Lakes
!!!LANG: Non-Tone
!!!LING_GROUP: Algonquin
**kern	**kern
*staff2	*staff1
=1-	=1-
*clefF4	*clefF4
*k[b-e-a-d-g-c-]	*k[b-e-a-d-g-c-]
*M5/8	*M5/8
8GG-/L	8e-\L
8GG-/	8e-\
8GG-/	8e-\
8GG-/	8B-\
8GG-/J	8B-\J
=2	=2
8GG-/L	[4.e-\
8GG-/	.
8GG-/	.
8GG-/	4e-\]
8GG-/J	.
=3	=3
3...r	8e-\L
.	8e-\
.	8d-\
.	8B-\
.	8A-\J
=4	=4
3...r	[4.B-\
.	4B-\]
=5	=5
3...r	8B-\L
.	8B-\
.	8A-\
.	8E-\
.	8E-\J
=6	=6
3...r	[4.A-\
.	4A-\]
=7	=7
3...r	8A-\L
.	8A-\
.	8A-\
.	8E-\
.	8E-\J
=8||	=8||
*M4/8	*M4/8
2r	8.F\L
.	16F\Jk
.	8E-\
.	8E-\
=9	=9
2r	8.E-\L
.	16E-\Jk
.	[4E-\
=10	=10
2r	4E-\_
.	4E-\_
=11	=11
2r	(8E-\]
.	8BB-/)
.	8A-\
.	8A-\
=12||	=12||
*M5/8	*M5/8
3...r	[4.B-\
.	4B-\]
=13	=13
3...r	8.e-\L
.	16d-\K
.	8e-\
.	8d-\
.	8A-\J
=14	=14
3...r	[4.B-\
.	4B-\]
=15	=15
3...r	8B-\L
.	8B-\
.	8A-\
.	8E-\
.	8E-\J
=16	=16
3...r	[4.A-\
.	4A-\]
=17	=17
3...r	8A-\L
.	8A-\
.	8A-\
.	8E-\
.	8E-\J
=18||	=18||
*M4/8	*M4/8
2r	8.F\L
.	16F\Jk
.	8E-\
.	8E-\
=19	=19
2r	8.E-\L
.	16E-\Jk
.	[4E-\
=20	=20
2r	4E-\_
.	4E-\]
==	==
*-	*-
